X: 38
P: Longways for as many as will
M: 6/4
L: 1/4
K: Bb
d |\
(dc)B e2f | g3- g2g | _agf (cf)=e | f3- f2 |]\
f |\
c2f c2d | e3- e2f |
(gG)G (cd)e | A3- A2c |\
d2B e2c | f2d (ga)f | b3- b2_a | g_ab f2f |\
e3 (g2f) | f3 def | cde c2B | Bb2- b2 |]

